X:1945
T:Polska efter Gelotte
R:Polska
O:Uppland
D:Peter "Puma" Hedlund - Vägen, spår 9
S:efter Wilhelm Gelotte
N: Se även [[Musik/191|+]]
M:3/4
L:1/16
Z:Nils L
K:Dm
Ad^cd A2G2 FEFG | A2A2 E2E2 D4 | f4 agfe gfed | ^cdec Td2A2 F2D2 |
Ad^cd A2G2 FEFG | A2A2 E2E2 D4 | f4 agfe gfed |1 ^cdec d8 :|2 ^cdec d6 fe |:
f2c2 c2f2 fagf | e2c2 c2e2 egfe | f2c2 c2f2 fagf | e2c2 c2e2 egfe | 
fefa e2ef d2de | c2cd B2Bc A2G2 | FEFA E2EF D2DF |1 ED^CE D4 z2fe :|2 ED^CE D8 |]
(:musicend:)

En enkel andrastämma:

(:music:)
